images/clock.svg

<svg fill="none" height="24" viewBox="0 0 24 24" width="24" xmlns="http://www.w3.org/2000/svg"><path clip-rule="evenodd" d="m12 0c-6.62903 0-12 5.37097-12 12 0 6.629 5.37097 12 12 12 6.629 0 12-5.371 12-12 0-6.62903-5.371-12-12-12zm.3158 22.1053c-5.4087 0-9.78948-4.3808-9.78948-9.7895s4.38078-9.78948 9.78948-9.78948 9.7895 4.38078 9.7895 9.78948-4.3808 9.7895-9.7895 9.7895zm-1.3367-8.7573 4.1982 2.9628c.267.1873.6379.1296.8307-.1249l.9297-1.2437c.1928-.2593.1384-.6194-.1286-.8067l-3.3031-2.3338v-6.80441c0-.31693-.2671-.57624-.5934-.57624h-1.5824c-.3263 0-.5934.25931-.5934.57624v7.88491c0 .1824.089.3553.2423.4658z" fill="#feb803" fill-rule="evenodd"/></svg>

<svg width="24" height="24" viewBox="0 0 24 24" fill="none" xmlns="http://www.w3.org/2000/svg">
<path fill-rule="evenodd" clip-rule="evenodd" d="M12 0C5.37097 0 0 5.37097 0 12C0 18.629 5.37097 24 12 24C18.629 24 24 18.629 24 12C24 5.37097 18.629 0 12 0ZM12.3158 22.1053C6.9071 22.1053 2.52632 17.7245 2.52632 12.3158C2.52632 6.9071 6.9071 2.52632 12.3158 2.52632C17.7245 2.52632 22.1053 6.9071 22.1053 12.3158C22.1053 17.7245 17.7245 22.1053 12.3158 22.1053ZM10.9791 13.348L15.1773 16.3108C15.4443 16.4981 15.8152 16.4404 16.008 16.1859L16.9377 14.9422C17.1305 14.6829 17.0761 14.3228 16.8091 14.1355L13.506 11.8017V4.99729C13.506 4.68036 13.2389 4.42105 12.9126 4.42105H11.3302C11.0039 4.42105 10.7368 4.68036 10.7368 4.99729V12.8822C10.7368 13.0646 10.8258 13.2375 10.9791 13.348Z" fill="#FEB803"/>
</svg>
